X: 10875
T: Drogheda, The
R: reel
M: 4/4
K: Gmajor
|:G2 BG dGBG|cAeA cAeA|BGdB cdeg|fdcA dcAF|
G2 BG dGBG|cAeA cAeA|BGdB cdeg|fdcA BG G2:|
|:g2 dg g2 ag|fdcA d2 cA|BGdB cdeg|fdcA d2 ef|
g2 dg g2 ag|fdcA d2 cA|BGdB cdeg|fdcA BG G2:|

